src/components/00-materials/images-raw/Birthday.svg

<svg width="96" height="96" viewBox="0 0 96 96" fill="none" xmlns="http://www.w3.org/2000/svg">
<path d="M71 60.84L70.37 60.5C67.14 58.77 65.86 58.76 62.63 60.5C60.5083 61.5746 58.1634 62.1346 55.785 62.1346C53.4067 62.1346 51.0618 61.5746 48.94 60.5C47.2753 59.6519 45.4334 59.2097 43.565 59.2097C41.6966 59.2097 39.8548 59.6519 38.19 60.5L37.79 60.71C35.822 61.695 33.6636 62.2409 31.464 62.31C29.2643 62.379 27.0759 61.9696 25.05 61.11H20.13M73.55 45.7C74.2446 45.7 74.9324 45.8373 75.5737 46.104C76.2151 46.3708 76.7974 46.7616 77.2871 47.2542C77.7769 47.7467 78.1644 48.3312 78.4275 48.9741C78.6906 49.6169 78.824 50.3055 78.82 51V60.42C78.82 60.6853 78.7147 60.9396 78.5271 61.1271C78.3396 61.3147 78.0852 61.42 77.82 61.42H75.38V77.11C75.3801 78.6653 74.765 80.1574 73.669 81.2608C72.5731 82.3643 71.0852 82.9895 69.53 83H26C24.444 82.9921 22.9546 82.3677 21.8581 81.2637C20.7616 80.1597 20.1474 78.6661 20.15 77.11V61.11H18.15C17.8848 61.11 17.6305 61.0047 17.4429 60.8172C17.2554 60.6296 17.15 60.3753 17.15 60.11V51C17.15 49.6024 17.7053 48.2619 18.6936 47.2736C19.6819 46.2853 21.0223 45.73 22.42 45.73L73.55 45.7ZM43.45 45.7V35.25C43.4472 35.1074 43.4733 34.9657 43.5265 34.8334C43.5798 34.7011 43.6592 34.5809 43.76 34.48C44.242 33.9908 44.8164 33.6023 45.4499 33.3372C46.0834 33.072 46.7633 32.9355 47.45 32.9355C48.1368 32.9355 48.8167 33.072 49.4501 33.3372C50.0836 33.6023 50.6581 33.9908 51.14 34.48C51.3399 34.6864 51.4512 34.9627 51.45 35.25V45.7H43.45ZM47.76 13C47.9301 12.9967 48.0972 13.0445 48.2399 13.1372C48.3825 13.2299 48.494 13.3633 48.56 13.52C51.03 18.71 52.26 22.39 52.26 24.69C52.26 27.47 50.53 28.42 47.79 27.5H47.73C45 28.42 43.26 27.5 43.26 24.69C43.26 22.39 44.5 18.69 46.97 13.52C47.0343 13.3641 47.144 13.231 47.2849 13.1383C47.4258 13.0455 47.5914 12.9974 47.76 13Z" stroke="#00008F" stroke-width="2" stroke-linecap="round" stroke-linejoin="round"/>
</svg>

<svg width="96" height="96" viewBox="0 0 96 96" fill="none" xmlns="http://www.w3.org/2000/svg"><path d="M71 60.84l-.63-.34c-3.23-1.73-4.51-1.74-7.74 0a15.15 15.15 0 01-13.69 0 11.84 11.84 0 00-10.75 0l-.4.21a15.2 15.2 0 01-12.74.4h-4.92M73.55 45.7a5.27 5.27 0 015.27 5.3v9.42a1 1 0 01-1 1h-2.44v15.69A5.89 5.89 0 0169.53 83H26a5.88 5.88 0 01-5.85-5.89v-16h-2a1 1 0 01-1-1V51a5.27 5.27 0 015.27-5.27l51.13-.03zm-30.1 0V35.25a1.061 1.061 0 01.31-.77 5.18 5.18 0 017.38 0c.2.206.311.483.31.77V45.7h-8zM47.76 13a.85.85 0 01.8.52c2.47 5.19 3.7 8.87 3.7 11.17 0 2.78-1.73 3.73-4.47 2.81h-.06c-2.73.92-4.47 0-4.47-2.81 0-2.3 1.24-6 3.71-11.17a.84.84 0 01.79-.52z" stroke="#00008F" stroke-width="2" stroke-linecap="round" stroke-linejoin="round"/></svg>
